X:0849
T:Miss Baillie's March.
M:C
L:1/8
Q:1/2=60
I: :: :|
N:no variant repeat to allow upbeat marked, each part ends |d2 d>d d4:|
Z:Jack Campin * www.campin.me.uk * 2009
K:D
       d2 d>d      d>Ade |f>gf>g      a2 g>f     |e2 e>f            e>fe>f|   g2 e>e e2fe|
       dA`FA       DA`FA |fg`fg       a2 g/f/e/d/|B>eg>e            f>de>c|[1 d2 d>d d4 :|\
                                                                           [2 d2 d>d d3 ||
(f/e/)|d>AF>A      D>AF>A|d>AF>A      D>AF>A     |A>BA>B            A>GF>G|   E2 e>f e2fg|
       ab a/b/a/g/ fd`fa |ff e/f/e/f/ ge`BG      |F/A/B/c/ d/c/B/A/ Bg`e>c|[1 d2 d>d d3 :|\
                                                                           [2 d2 d>d d4 |]

